src/svgs/participation.svg

<svg xmlns="http://www.w3.org/2000/svg" viewBox="0 0 78 73"><path d="M36.205.978c-3.739.484-7.591 1.958-10.725 4.104-1.693 1.159-2.66 1.991-4.294 3.693-3.909 4.071-6.29 9.365-6.825 15.171l-.08.87-.717.404c-1.617.913-3.782 2.612-5.33 4.182-1.846 1.873-1.909 1.948-3.148 3.786C2.647 36.803 1.19 41.154.895 45.695c-.237 3.653.263 6.967 1.614 10.683 1.639 4.513 5.578 9.418 9.667 12.039 3.734 2.393 6.943 3.539 11.538 4.122 4.482.567 10.324-.597 14.493-2.89l.963-.529 1.117.597c1.449.773 3.903 1.73 5.444 2.12.67.17 2.077.434 3.126.587 6.35.922 13.286-.893 18.585-4.864 2.437-1.825 5.26-5.02 6.702-7.583 1.677-2.983 2.662-5.86 3.152-9.212.59-4.029.037-8.847-1.449-12.637-1.952-4.977-5.315-9.138-9.821-12.153l-.989-.661-.079-1.315c-.211-3.485-1.587-7.774-3.489-10.874-1.18-1.922-1.856-2.814-3.352-4.42C54.225 4.527 48.651 1.676 43.01.978c-1.896-.235-4.993-.235-6.805 0M44.07 2.07c1.949.395 3.042.709 4.549 1.31 4.846 1.93 8.746 5.137 11.667 9.592 1.348 2.055 2.733 5.382 3.286 7.889.211.96.518 3.406.518 4.132 0 .349.061.747.135.886.092.173.092.251 0 .251-.077 0-.135.309-.135.715v.715h.455c.445 0 .455-.012.455-.523v-.524l.404.209c1.35.698 4.331 3.38 5.78 5.2 2.292 2.879 3.878 6.105 4.79 9.743.534 2.133.768 6.536.463 8.71-.628 4.474-2.454 8.772-5.163 12.155-.973 1.215-2.9 3.093-4.197 4.089-3.667 2.816-7.612 4.408-12.282 4.957-1.713.201-4.067.194-5.525-.017-1.651-.239-2.433-.395-3.64-.729-1.784-.493-2.428-.747-4.627-1.825l-1.833-.899-1.846.921c-2.866 1.431-5.314 2.167-8.464 2.543-1.735.208-4.199.21-5.46.006-.179-.029-.617-.09-.975-.136-1.013-.13-3.661-.83-4.81-1.272-6.215-2.39-11.209-7.15-13.813-13.163-1.418-3.275-1.998-6.088-2.012-9.75-.015-3.963.822-7.502 2.596-10.969 1.229-2.402 2.342-3.98 4.34-6.147 1.163-1.262 3.423-2.999 5.23-4.019 1.203-.679 1.249-.722 1.252-1.16.002-.25.093-1.128.201-1.95 1.396-10.584 9.399-19.014 19.86-20.921 2.125-.387 2.015-.379 4.836-.335 2.01.031 2.91.103 3.965.316M25.74 22.295v.455h1.43v-.91h-1.43v.455m26 0v.455h.635c.548 0 .645-.04.713-.293.154-.575.112-.617-.633-.617h-.715v.455m-29.445-.13c-.072.024-.347.08-.613.124-.463.078-.48.099-.404.499.044.229.092.433.107.452.015.02.328-.029.696-.108.676-.145.729-.211.587-.739-.077-.29-.119-.315-.373-.228m25.74.021c-.143.03-.392.082-.552.117-.294.062-.374.346-.214.76.052.137.183.184.39.141 1.028-.211.979-.18.936-.611-.042-.429-.134-.496-.56-.407m-17.745.279c0 .145-.032.346-.07.447-.052.135.114.216.638.311l.709.129.078-.391c.098-.49.023-.559-.737-.67-.564-.083-.618-.068-.618.174m25.963-.155c-.051.051-.093.251-.093.444 0 .318.062.364.644.479.523.103.657.092.715-.059.102-.266.088-.659-.027-.726-.205-.122-1.15-.227-1.239-.138m-38.702 1.075c-.63.234-.761.465-.48.849.172.236.197.236.786.011.519-.198.596-.273.525-.506-.171-.562-.218-.582-.831-.354m25.912-.005c-.706.281-.731.314-.543.726.167.367.293.375 1.093.071.293-.112.331-.183.256-.486-.128-.519-.207-.549-.806-.311m-8.865.415c-.126.36-.109.407.182.52 1.062.415.969.418 1.161-.038l.177-.422-.542-.22c-.745-.303-.821-.291-.978.16m25.934-.102c-.134.501-.096.571.406.735.268.087.553.187.633.221.08.034.176-.043.213-.171.036-.128.105-.326.152-.44.066-.158-.05-.26-.477-.423-.734-.28-.833-.272-.927.078M39.48 25.235c-.13.075-.311.108-.402.073-.147-.056-.693.651-.578.749.025.021.293.192.595.381l.551.343.332-.503c.291-.439.313-.545.177-.845-.169-.37-.309-.411-.675-.198m-25.18 2v.715h.91v-1.43h-.91v.715m21.27.782c-.495.437-.501.452-.289.774.118.181.258.328.309.327.052-.001.322-.194.599-.428l.504-.427-.309-.346-.309-.347-.505.447m6.765.27-.239.329.499.438.5.437.325-.324.325-.324-.52-.445c-.286-.244-.549-.443-.585-.442-.036.001-.173.15-.305.331m21.316 2.778c-.044.276-.114.59-.155.696-.098.256.707.457.856.215.105-.169.294-1.18.23-1.23-.02-.016-.22-.063-.444-.106-.39-.074-.41-.056-.487.425m-31.293.28-.423.535.315.242c.173.133.349.244.391.245.041.002.258-.224.48-.501l.405-.504-.294-.276c-.161-.152-.329-.276-.372-.276-.043 0-.269.241-.502.535m-17.39-.289c-.125.08-.152.257-.091.618.122.718.203.8.668.676l.401-.106-.134-.652c-.108-.529-.184-.652-.4-.65a.993.993 0 0 0-.444.114m30.564.361c-.377.264-.363.403.096.94.371.433.385.437.71.224.183-.119.332-.264.332-.322 0-.058-.19-.318-.422-.577-.404-.449-.436-.461-.716-.265m-15.685 3.685-.347.636.407.211c.224.115.424.191.444.168.101-.115.602-1.176.566-1.199l-.383-.24-.341-.212-.346.636m32.455.371-.263.633.426.203.427.203.256-.673.256-.674-.387-.162a4.425 4.425 0 0 0-.42-.163c-.018 0-.151.285-.295.633m-14.31-.264-.302.232.29.598.29.598.427-.204.427-.203-.319-.63c-.176-.347-.362-.629-.415-.627-.052.001-.231.108-.398.236m-31.515.071c-.196.072-.357.205-.357.296 0 .127.311.912.472 1.191.013.023.205-.051.426-.166.399-.206.401-.212.214-.658-.323-.774-.36-.806-.755-.663m11.54 4.015c-.108.362-.175.68-.149.706.026.026.223.098.438.159.375.108.398.091.547-.407.085-.286.183-.591.216-.678.036-.093-.128-.216-.398-.299l-.458-.141-.196.66m32.214.108-.352.532.318.245c.175.134.354.246.398.247.1.004.765-.99.765-1.143 0-.096-.552-.414-.719-.414-.032 0-.216.24-.41.533m-41.806-.067-.36.195.399.579c.219.319.44.579.49.577.05-.001.221-.104.38-.227l.289-.225-.354-.552c-.195-.303-.383-.549-.419-.547-.036.002-.227.092-.425.2m31.356-.038c-.333.156-.334.161-.151.788.177.611.197.629.585.552.22-.045.426-.106.456-.136.08-.079-.365-1.373-.469-1.366-.048.003-.237.076-.421.162m7.77 3.576-.485.497.331.311.331.311.481-.481.481-.481-.327-.327-.327-.327-.485.497m-36.336.029c-.341.28-.28.496.292 1.03l.34.319.323-.323.323-.323-.489-.474c-.488-.473-.49-.474-.789-.229m5.778.831c-.082.693.013.85.517.854.218.002.293-.1.357-.486.14-.848.117-.91-.357-.965-.44-.051-.44-.051-.517.597m23.812-.092c-.341.052-.349.073-.275.728.042.371.093.695.114.72.021.025.217.005.437-.043.304-.067.399-.159.399-.386 0-.441-.15-1.114-.244-1.092a8.546 8.546 0 0 1-.431.073m3.47 2.132c-.539.411-.573.547-.233.925.189.209.236.198.762-.179l.56-.402-.277-.374a6.527 6.527 0 0 0-.284-.37c-.004.002-.242.182-.528.4m-29.763.145c-.283.405-.268.444.334.842l.535.354.245-.302c.134-.166.243-.339.241-.385-.003-.088-.966-.798-1.083-.798-.038 0-.16.13-.272.289M50.7 47.642c0 .226-.116.381-.39.523-.214.111-.39.221-.39.244 0 .023.064.225.142.448l.141.406.503-.256c.277-.141.594-.257.704-.257.156 0 .2-.158.2-.715v-.715h-.455c-.397 0-.455.041-.455.322m-23.757.024c-.101.041-.163.323-.163.744v.678l.455-.053.455-.053v-.701c0-.643-.024-.7-.292-.691a1.7 1.7 0 0 0-.455.076m1.334.691-.2.387.656.332.656.333.18-.427.181-.427-.542-.287c-.697-.368-.695-.368-.931.089m17.959 1.345c-.464.13-.493.166-.421.527.043.213.105.414.138.447.048.048 1.211-.214 1.335-.301.018-.012-.031-.208-.11-.434-.154-.442-.186-.45-.942-.239m-13.774.315c-.037.196-.045.394-.017.439.056.091 1.236.409 1.291.347.018-.021.073-.22.12-.443.084-.393.069-.41-.497-.553-.797-.201-.819-.196-.897.21m4.42.866c-.034.221-.04.425-.014.453.025.029.332.079.682.113l.636.061.067-.438c.036-.24.058-.444.049-.453a9.535 9.535 0 0 0-.688-.077c-.666-.061-.671-.059-.732.341m4.881-.349c-.367.046-.423.102-.423.427 0 .483.134.554.845.447.561-.084.585-.106.585-.528 0-.474.006-.472-1.007-.346m8.505 1.42c-.172.605-.224 1.066-.128 1.121.058.032.258.096.446.14.323.077.347.047.475-.599.075-.375.122-.695.105-.712-.016-.017-.21-.067-.43-.111-.319-.064-.414-.032-.468.161m-22.624.151c-.363.044-.369.057-.282.652.11.752.179.826.672.728l.393-.079-.141-.627c-.078-.345-.17-.648-.206-.674-.036-.025-.232-.025-.436 0m21.204 4.479c-.126.305-.228.591-.228.637 0 .082.801.402.845.337.012-.018.124-.294.249-.613.215-.552.215-.587-.004-.747-.399-.291-.626-.19-.862.386m-20.01-.146-.347.127.267.642c.146.354.321.643.388.643.1 0 .598-.222.723-.323.068-.054-.503-1.237-.593-1.227-.05.006-.247.068-.438.138m17.977 4.055-.391.568.375.278.376.278.249-.356c.549-.785.562-.875.156-1.115l-.374-.221-.391.568m-15.842-.085c-.371.258-.367.326.048.952l.34.515.367-.261.367-.261-.35-.578c-.192-.317-.379-.576-.415-.574-.036.001-.197.094-.357.207m13.095 3.619-.443.457.325.325.324.324.516-.528.515-.529-.325-.25c-.179-.138-.357-.252-.397-.253-.04-.002-.271.203-.515.454m-10.4 0-.311.331.481.481.481.481.327-.327.327-.327-.497-.485-.497-.485-.311.331m7.123 2.895c-.266.194-.486.39-.488.436-.002.046.107.219.242.386l.245.302.535-.371c.605-.419.61-.43.333-.826-.252-.36-.275-.358-.867.073m-3.832.155-.285.353.587.413.587.414.246-.296c.327-.392.324-.409-.166-.777-.644-.483-.663-.485-.969-.107" fill-rule="evenodd"/></svg>

<svg xmlns="http://www.w3.org/2000/svg" viewBox="0 0 78 73"><path d="M36.205 0.978 C 32.466 1.462,28.614 2.936,25.480 5.082 C 23.787 6.241,22.820 7.073,21.186 8.775 C 17.277 12.846,14.896 18.140,14.361 23.946 L 14.281 24.816 13.564 25.220 C 11.947 26.133,9.782 27.832,8.234 29.402 C 6.388 31.275,6.325 31.350,5.086 33.188 C 2.647 36.803,1.190 41.154,0.895 45.695 C 0.658 49.348,1.158 52.662,2.509 56.378 C 4.148 60.891,8.087 65.796,12.176 68.417 C 15.910 70.810,19.119 71.956,23.714 72.539 C 28.196 73.106,34.038 71.942,38.207 69.649 L 39.170 69.120 40.287 69.717 C 41.736 70.490,44.190 71.447,45.731 71.837 C 46.401 72.007,47.808 72.271,48.857 72.424 C 55.207 73.346,62.143 71.531,67.442 67.560 C 69.879 65.735,72.702 62.540,74.144 59.977 C 75.821 56.994,76.806 54.117,77.296 50.765 C 77.886 46.736,77.333 41.918,75.847 38.128 C 73.895 33.151,70.532 28.990,66.026 25.975 L 65.037 25.314 64.958 23.999 C 64.747 20.514,63.371 16.225,61.469 13.125 C 60.289 11.203,59.613 10.311,58.117 8.705 C 54.225 4.527,48.651 1.676,43.010 0.978 C 41.114 0.743,38.017 0.743,36.205 0.978 M44.070 2.070 C 46.019 2.465,47.112 2.779,48.619 3.380 C 53.465 5.310,57.365 8.517,60.286 12.972 C 61.634 15.027,63.019 18.354,63.572 20.861 C 63.783 21.821,64.090 24.267,64.090 24.993 C 64.090 25.342,64.151 25.740,64.225 25.879 C 64.317 26.052,64.317 26.130,64.225 26.130 C 64.148 26.130,64.090 26.439,64.090 26.845 L 64.090 27.560 64.545 27.560 C 64.990 27.560,65.000 27.548,65.000 27.037 L 65.000 26.513 65.404 26.722 C 66.754 27.420,69.735 30.102,71.184 31.922 C 73.476 34.801,75.062 38.027,75.974 41.665 C 76.508 43.798,76.742 48.201,76.437 50.375 C 75.809 54.849,73.983 59.147,71.274 62.530 C 70.301 63.745,68.374 65.623,67.077 66.619 C 63.410 69.435,59.465 71.027,54.795 71.576 C 53.082 71.777,50.728 71.770,49.270 71.559 C 47.619 71.320,46.837 71.164,45.630 70.830 C 43.846 70.337,43.202 70.083,41.003 69.005 L 39.170 68.106 37.324 69.027 C 34.458 70.458,32.010 71.194,28.860 71.570 C 27.125 71.778,24.661 71.780,23.400 71.576 C 23.221 71.547,22.783 71.486,22.425 71.440 C 21.412 71.310,18.764 70.610,17.615 70.168 C 11.400 67.778,6.406 63.018,3.802 57.005 C 2.384 53.730,1.804 50.917,1.790 47.255 C 1.775 43.292,2.612 39.753,4.386 36.286 C 5.615 33.884,6.728 32.306,8.726 30.139 C 9.889 28.877,12.149 27.140,13.956 26.120 C 15.159 25.441,15.205 25.398,15.208 24.960 C 15.210 24.710,15.301 23.832,15.409 23.010 C 16.805 12.426,24.808 3.996,35.269 2.089 C 37.394 1.702,37.284 1.710,40.105 1.754 C 42.115 1.785,43.015 1.857,44.070 2.070 M25.740 22.295 L 25.740 22.750 26.455 22.750 L 27.170 22.750 27.170 22.295 L 27.170 21.840 26.455 21.840 L 25.740 21.840 25.740 22.295 M51.740 22.295 L 51.740 22.750 52.375 22.750 C 52.923 22.750,53.020 22.710,53.088 22.457 C 53.242 21.882,53.200 21.840,52.455 21.840 L 51.740 21.840 51.740 22.295 M22.295 22.165 C 22.223 22.189,21.948 22.245,21.682 22.289 C 21.219 22.367,21.202 22.388,21.278 22.788 C 21.322 23.017,21.370 23.221,21.385 23.240 C 21.400 23.260,21.713 23.211,22.081 23.132 C 22.757 22.987,22.810 22.921,22.668 22.393 C 22.591 22.103,22.549 22.078,22.295 22.165 M48.035 22.186 C 47.892 22.216,47.643 22.268,47.483 22.303 C 47.189 22.365,47.109 22.649,47.269 23.063 C 47.321 23.200,47.452 23.247,47.659 23.204 C 48.687 22.993,48.638 23.024,48.595 22.593 C 48.553 22.164,48.461 22.097,48.035 22.186 M30.290 22.465 C 30.290 22.610,30.258 22.811,30.220 22.912 C 30.168 23.047,30.334 23.128,30.858 23.223 L 31.567 23.352 31.645 22.961 C 31.743 22.471,31.668 22.402,30.908 22.291 C 30.344 22.208,30.290 22.223,30.290 22.465 M56.253 22.310 C 56.202 22.361,56.160 22.561,56.160 22.754 C 56.160 23.072,56.222 23.118,56.804 23.233 C 57.327 23.336,57.461 23.325,57.519 23.174 C 57.621 22.908,57.607 22.515,57.492 22.448 C 57.287 22.326,56.342 22.221,56.253 22.310 M17.551 23.385 C 16.921 23.619,16.790 23.850,17.071 24.234 C 17.243 24.470,17.268 24.470,17.857 24.245 C 18.376 24.047,18.453 23.972,18.382 23.739 C 18.211 23.177,18.164 23.157,17.551 23.385 M43.463 23.380 C 42.757 23.661,42.732 23.694,42.920 24.106 C 43.087 24.473,43.213 24.481,44.013 24.177 C 44.306 24.065,44.344 23.994,44.269 23.691 C 44.141 23.172,44.062 23.142,43.463 23.380 M34.598 23.795 C 34.472 24.155,34.489 24.202,34.780 24.315 C 35.842 24.730,35.749 24.733,35.941 24.277 L 36.118 23.855 35.576 23.635 C 34.831 23.332,34.755 23.344,34.598 23.795 M60.532 23.693 C 60.398 24.194,60.436 24.264,60.938 24.428 C 61.206 24.515,61.491 24.615,61.571 24.649 C 61.651 24.683,61.747 24.606,61.784 24.478 C 61.820 24.350,61.889 24.152,61.936 24.038 C 62.002 23.880,61.886 23.778,61.459 23.615 C 60.725 23.335,60.626 23.343,60.532 23.693 M39.480 25.235 C 39.350 25.310,39.169 25.343,39.078 25.308 C 38.931 25.252,38.385 25.959,38.500 26.057 C 38.525 26.078,38.793 26.249,39.095 26.438 L 39.646 26.781 39.978 26.278 C 40.269 25.839,40.291 25.733,40.155 25.433 C 39.986 25.063,39.846 25.022,39.480 25.235 M14.300 27.235 L 14.300 27.950 14.755 27.950 L 15.210 27.950 15.210 27.235 L 15.210 26.520 14.755 26.520 L 14.300 26.520 14.300 27.235 M35.570 28.017 C 35.075 28.454,35.069 28.469,35.281 28.791 C 35.399 28.972,35.539 29.119,35.590 29.118 C 35.642 29.117,35.912 28.924,36.189 28.690 L 36.693 28.263 36.384 27.917 L 36.075 27.570 35.570 28.017 M42.335 28.287 L 42.096 28.616 42.595 29.054 L 43.095 29.491 43.420 29.167 L 43.745 28.843 43.225 28.398 C 42.939 28.154,42.676 27.955,42.640 27.956 C 42.604 27.957,42.467 28.106,42.335 28.287 M63.651 31.065 C 63.607 31.341,63.537 31.655,63.496 31.761 C 63.398 32.017,64.203 32.218,64.352 31.976 C 64.457 31.807,64.646 30.796,64.582 30.746 C 64.562 30.730,64.362 30.683,64.138 30.640 C 63.748 30.566,63.728 30.584,63.651 31.065 M32.358 31.345 L 31.935 31.880 32.250 32.122 C 32.423 32.255,32.599 32.366,32.641 32.367 C 32.682 32.369,32.899 32.143,33.121 31.866 L 33.526 31.362 33.232 31.086 C 33.071 30.934,32.903 30.810,32.860 30.810 C 32.817 30.810,32.591 31.051,32.358 31.345 M14.968 31.056 C 14.843 31.136,14.816 31.313,14.877 31.674 C 14.999 32.392,15.080 32.474,15.545 32.350 L 15.946 32.244 15.812 31.592 C 15.704 31.063,15.628 30.940,15.412 30.942 C 15.265 30.943,15.066 30.994,14.968 31.056 M45.532 31.417 C 45.155 31.681,45.169 31.820,45.628 32.357 C 45.999 32.790,46.013 32.794,46.338 32.581 C 46.521 32.462,46.670 32.317,46.670 32.259 C 46.670 32.201,46.480 31.941,46.248 31.682 C 45.844 31.233,45.812 31.221,45.532 31.417 M29.847 35.102 L 29.500 35.738 29.907 35.949 C 30.131 36.064,30.331 36.140,30.351 36.117 C 30.452 36.002,30.953 34.941,30.917 34.918 C 30.894 34.903,30.722 34.796,30.534 34.678 L 30.193 34.466 29.847 35.102 M62.302 35.473 L 62.039 36.106 62.465 36.309 L 62.892 36.512 63.148 35.839 L 63.404 35.165 63.017 35.003 C 62.804 34.913,62.615 34.840,62.597 34.840 C 62.579 34.840,62.446 35.125,62.302 35.473 M47.992 35.209 L 47.690 35.441 47.980 36.039 L 48.270 36.637 48.697 36.433 L 49.124 36.230 48.805 35.600 C 48.629 35.253,48.443 34.971,48.390 34.973 C 48.338 34.974,48.159 35.081,47.992 35.209 M16.477 35.280 C 16.281 35.352,16.120 35.485,16.120 35.576 C 16.120 35.703,16.431 36.488,16.592 36.767 C 16.605 36.790,16.797 36.716,17.018 36.601 C 17.417 36.395,17.419 36.389,17.232 35.943 C 16.909 35.169,16.872 35.137,16.477 35.280 M28.017 39.295 C 27.909 39.657,27.842 39.975,27.868 40.001 C 27.894 40.027,28.091 40.099,28.306 40.160 C 28.681 40.268,28.704 40.251,28.853 39.753 C 28.938 39.467,29.036 39.162,29.069 39.075 C 29.105 38.982,28.941 38.859,28.671 38.776 L 28.213 38.635 28.017 39.295 M60.231 39.403 L 59.879 39.935 60.197 40.180 C 60.372 40.314,60.551 40.426,60.595 40.427 C 60.695 40.431,61.360 39.437,61.360 39.284 C 61.360 39.188,60.808 38.870,60.641 38.870 C 60.609 38.870,60.425 39.110,60.231 39.403 M18.425 39.336 L 18.065 39.531 18.464 40.110 C 18.683 40.429,18.904 40.689,18.954 40.687 C 19.004 40.686,19.175 40.583,19.334 40.460 L 19.623 40.235 19.269 39.683 C 19.074 39.380,18.886 39.134,18.850 39.136 C 18.814 39.138,18.623 39.228,18.425 39.336 M49.781 39.298 C 49.448 39.454,49.447 39.459,49.630 40.086 C 49.807 40.697,49.827 40.715,50.215 40.638 C 50.435 40.593,50.641 40.532,50.671 40.502 C 50.751 40.423,50.306 39.129,50.202 39.136 C 50.154 39.139,49.965 39.212,49.781 39.298 M57.551 42.874 L 57.066 43.371 57.397 43.682 L 57.728 43.993 58.209 43.512 L 58.690 43.031 58.363 42.704 L 58.036 42.377 57.551 42.874 M21.215 42.903 C 20.874 43.183,20.935 43.399,21.507 43.933 L 21.847 44.252 22.170 43.929 L 22.493 43.606 22.004 43.132 C 21.516 42.659,21.514 42.658,21.215 42.903 M26.993 43.734 C 26.911 44.427,27.006 44.584,27.510 44.588 C 27.728 44.590,27.803 44.488,27.867 44.102 C 28.007 43.254,27.984 43.192,27.510 43.137 C 27.070 43.086,27.070 43.086,26.993 43.734 M50.805 43.642 C 50.464 43.694,50.456 43.715,50.530 44.370 C 50.572 44.741,50.623 45.065,50.644 45.090 C 50.665 45.115,50.861 45.095,51.081 45.047 C 51.385 44.980,51.480 44.888,51.480 44.661 C 51.480 44.220,51.330 43.547,51.236 43.569 C 51.192 43.580,50.997 43.613,50.805 43.642 M54.275 45.774 C 53.736 46.185,53.702 46.321,54.042 46.699 C 54.231 46.908,54.278 46.897,54.804 46.520 L 55.364 46.118 55.087 45.744 C 54.935 45.538,54.807 45.372,54.803 45.374 C 54.799 45.376,54.561 45.556,54.275 45.774 M24.512 45.919 C 24.229 46.324,24.244 46.363,24.846 46.761 L 25.381 47.115 25.626 46.813 C 25.760 46.647,25.869 46.474,25.867 46.428 C 25.864 46.340,24.901 45.630,24.784 45.630 C 24.746 45.630,24.624 45.760,24.512 45.919 M50.700 47.642 C 50.700 47.868,50.584 48.023,50.310 48.165 C 50.096 48.276,49.920 48.386,49.920 48.409 C 49.920 48.432,49.984 48.634,50.062 48.857 L 50.203 49.263 50.706 49.007 C 50.983 48.866,51.300 48.750,51.410 48.750 C 51.566 48.750,51.610 48.592,51.610 48.035 L 51.610 47.320 51.155 47.320 C 50.758 47.320,50.700 47.361,50.700 47.642 M26.943 47.666 C 26.842 47.707,26.780 47.989,26.780 48.410 L 26.780 49.088 27.235 49.035 L 27.690 48.982 27.690 48.281 C 27.690 47.638,27.666 47.581,27.398 47.590 C 27.237 47.596,27.032 47.630,26.943 47.666 M28.277 48.357 L 28.077 48.744 28.733 49.076 L 29.389 49.409 29.569 48.982 L 29.750 48.555 29.208 48.268 C 28.511 47.900,28.513 47.900,28.277 48.357 M46.236 49.702 C 45.772 49.832,45.743 49.868,45.815 50.229 C 45.858 50.442,45.920 50.643,45.953 50.676 C 46.001 50.724,47.164 50.462,47.288 50.375 C 47.306 50.363,47.257 50.167,47.178 49.941 C 47.024 49.499,46.992 49.491,46.236 49.702 M32.462 50.017 C 32.425 50.213,32.417 50.411,32.445 50.456 C 32.501 50.547,33.681 50.865,33.736 50.803 C 33.754 50.782,33.809 50.583,33.856 50.360 C 33.940 49.967,33.925 49.950,33.359 49.807 C 32.562 49.606,32.540 49.611,32.462 50.017 M36.882 50.883 C 36.848 51.104,36.842 51.308,36.868 51.336 C 36.893 51.365,37.200 51.415,37.550 51.449 L 38.186 51.510 38.253 51.072 C 38.289 50.832,38.311 50.628,38.302 50.619 C 38.293 50.611,37.983 50.576,37.614 50.542 C 36.948 50.481,36.943 50.483,36.882 50.883 M41.763 50.534 C 41.396 50.580,41.340 50.636,41.340 50.961 C 41.340 51.444,41.474 51.515,42.185 51.408 C 42.746 51.324,42.770 51.302,42.770 50.880 C 42.770 50.406,42.776 50.408,41.763 50.534 M50.268 51.954 C 50.096 52.559,50.044 53.020,50.140 53.075 C 50.198 53.107,50.398 53.171,50.586 53.215 C 50.909 53.292,50.933 53.262,51.061 52.616 C 51.136 52.241,51.183 51.921,51.166 51.904 C 51.150 51.887,50.956 51.837,50.736 51.793 C 50.417 51.729,50.322 51.761,50.268 51.954 M27.644 52.105 C 27.281 52.149,27.275 52.162,27.362 52.757 C 27.472 53.509,27.541 53.583,28.034 53.485 L 28.427 53.406 28.286 52.779 C 28.208 52.434,28.116 52.131,28.080 52.105 C 28.044 52.080,27.848 52.080,27.644 52.105 M48.848 56.584 C 48.722 56.889,48.620 57.175,48.620 57.221 C 48.620 57.303,49.421 57.623,49.465 57.558 C 49.477 57.540,49.589 57.264,49.714 56.945 C 49.929 56.393,49.929 56.358,49.710 56.198 C 49.311 55.907,49.084 56.008,48.848 56.584 M28.838 56.438 L 28.491 56.565 28.758 57.207 C 28.904 57.561,29.079 57.850,29.146 57.850 C 29.246 57.850,29.744 57.628,29.869 57.527 C 29.937 57.473,29.366 56.290,29.276 56.300 C 29.226 56.306,29.029 56.368,28.838 56.438 M46.815 60.493 L 46.424 61.061 46.799 61.339 L 47.175 61.617 47.424 61.261 C 47.973 60.476,47.986 60.386,47.580 60.146 L 47.206 59.925 46.815 60.493 M30.973 60.408 C 30.602 60.666,30.606 60.734,31.021 61.360 L 31.361 61.875 31.728 61.614 L 32.095 61.353 31.745 60.775 C 31.553 60.458,31.366 60.199,31.330 60.201 C 31.294 60.202,31.133 60.295,30.973 60.408 M44.068 64.027 L 43.625 64.484 43.950 64.809 L 44.274 65.133 44.790 64.605 L 45.305 64.076 44.980 63.826 C 44.801 63.688,44.623 63.574,44.583 63.573 C 44.543 63.571,44.312 63.776,44.068 64.027 M33.668 64.027 L 33.357 64.358 33.838 64.839 L 34.319 65.320 34.646 64.993 L 34.973 64.666 34.476 64.181 L 33.979 63.696 33.668 64.027 M40.791 66.922 C 40.525 67.116,40.305 67.312,40.303 67.358 C 40.301 67.404,40.410 67.577,40.545 67.744 L 40.790 68.046 41.325 67.675 C 41.930 67.256,41.935 67.245,41.658 66.849 C 41.406 66.489,41.383 66.491,40.791 66.922 M36.959 67.077 L 36.674 67.430 37.261 67.843 L 37.848 68.257 38.094 67.961 C 38.421 67.569,38.418 67.552,37.928 67.184 C 37.284 66.701,37.265 66.699,36.959 67.077 " stroke="none" fill-rule="evenodd"></path></svg>
